; HEADER_BLOCK_START
; generated by AnycubicSlicerNext 1.3.4.0 on 2026-05-08 at 14:34:21
; total layer number: 100
; filament_density: 1.23
; filament_diameter: 1.75
; max_z_height: 20.00
; exclude_object: 1
; model_instances: 1
; HEADER_BLOCK_END

; THUMBNAIL_BLOCK_START
; THUMBNAIL_BLOCK_END

; THUMBNAIL_BLOCK_START
; THUMBNAIL_BLOCK_END

; external perimeters extrusion width = 0.42mm
; perimeters extrusion width = 0.45mm
; infill extrusion width = 0.45mm
; solid infill extrusion width = 0.42mm
; top infill extrusion width = 0.42mm
; first layer extrusion width = 0.50mm

; EXECUTABLE_BLOCK_START
EXCLUDE_OBJECT_DEFINE NAME=mlx_holder.stl_id_0_copy_0 CENTER=128.466,134.144 POLYGON=[[78.4661,71.6442],[178.466,71.6442],[178.466,196.644],[78.4661,196.644],[78.4661,71.6442]]
M73 P0 R42
;TYPE:Custom
G9111 bedTemp=70 extruderTemp=230
M117
M900 K0.051
; print_bed_min = 0,0
; print_bed_max = 255,255
; print_bed_size = 255,255
; first_layer_print_min = 76.4661,72.7599
; first_layer_print_max = 180.466,198.644
; first_layer_print_size = 104,125.884
G90
G21
M83 ; use relative distances for extrusion
; filament start gcode
M106 S0
;LAYER_CHANGE
;Z:0.2
;HEIGHT:0.2
; BEFORE_LAYER_CHANGE 0 @ 0.2mm
G1 E-2 F4800
; AFTER_LAYER_CHANGE 0 @ 0.2mm
M204 P500
SET_VELOCITY_LIMIT SQUARE_CORNER_VELOCITY=9
; printing object "mlx_holder.stl" id:0 copy 0
EXCLUDE_OBJECT_START NAME=mlx_holder.stl_id_0_copy_0
M204 T500
M73 P9 R38
G1 X80.945 Y186.01 F21000
M73 P9 R38
G1 Z.6
G1 Z.2
G1 E2 F4800
;TYPE:Inner wall
;WIDTH:0.5
;MM3_PER_MM:0.091416
G1 F2700
G1 X81.261 Y186.231 E.01394
G1 X81.642 Y186.409 E.01517
G1 X82.048 Y186.518 E.01517
G1 X82.469 Y186.555 E.01529
G1 X82.901 Y186.513 E.01566
G1 X83.29 Y186.409 E.01454
G1 X83.671 Y186.231 E.01517
G1 X84.015 Y185.99 E.01517
G1 X84.312 Y185.693 E.01517
G1 X84.553 Y185.349 E.01517
G1 X84.731 Y184.969 E.01517
G1 X84.84 Y184.563 E.01517
G1 X84.876 Y184.144 E.01517
G1 X84.84 Y183.726 E.01517
G1 X84.731 Y183.32 E.01517
G1 X84.553 Y182.939 E.01517
G1 X84.312 Y182.595 E.01517
G1 X84.015 Y182.298 E.01517
G1 X83.671 Y182.057 E.01517
G1 X83.29 Y181.879 E.01517
G1 X82.881 Y181.77 E.01529
G1 X82.449 Y181.736 E.01567
G1 X82.048 Y181.771 E.01454
G1 X81.642 Y181.879 E.01517
G1 X81.261 Y182.057 E.01517
G1 X80.917 Y182.298 E.01517
G1 X80.62 Y182.595 E.01517
G1 X80.379 Y182.939 E.01517
G1 X80.201 Y183.32 E.01517
G1 X80.093 Y183.726 E.01517
G1 X80.056 Y184.144 E.01517
G1 X80.093 Y184.563 E.01517
G1 X80.201 Y184.969 E.01517
G1 X80.379 Y185.349 E.01517
G1 X80.62 Y185.693 E.01517
G1 X80.913 Y185.986 E.01495
G1 X81.206 Y185.633 F21000
;TYPE:Outer wall
G1 F2700
G1 X81.212 Y185.639 E.00028
G1 X81.49 Y185.834 E.01228
G1 X81.799 Y185.978 E.01228
G1 X82.127 Y186.066 E.01228
G1 X82.468 Y186.096 E.01233
G1 X82.82 Y186.062 E.01278
G1 X83.133 Y185.978 E.01172
G1 X83.442 Y185.834 E.01228
G1 X83.72 Y185.639 E.01228
G1 X83.961 Y185.398 E.01228
G1 X84.156 Y185.12 E.01228
G1 X84.3 Y184.812 E.01228
G1 X84.388 Y184.483 E.01228
G1 X84.417 Y184.144 E.01228
G1 X84.388 Y183.805 E.01228
G1 X84.3 Y183.477 E.01228
G1 X84.156 Y183.169 E.01228
G1 X83.961 Y182.89 E.01228
G1 X83.72 Y182.649 E.01228
G1 X83.442 Y182.454 E.01228
G1 X83.133 Y182.311 E.01228
G1 X82.804 Y182.222 E.01233
G1 X82.451 Y182.194 E.01278
G1 X82.127 Y182.222 E.01173
G1 X81.799 Y182.311 E.01228
G1 X81.49 Y182.454 E.01228
G1 X81.212 Y182.649 E.01228
G1 X80.971 Y182.89 E.01228
G1 X80.776 Y183.169 E.01228
G1 X80.632 Y183.477 E.01228
G1 X80.544 Y183.805 E.01228
G1 X80.515 Y184.144 E.01228
G1 X80.544 Y184.483 E.01228
G1 X80.632 Y184.812 E.01228
G1 X80.776 Y185.12 E.01228
G1 X80.971 Y185.398 E.01228
G1 X81.178 Y185.605 E.01055
G1 E-1.6 F4800
;WIPE_START
G1 F2700
G1 X81.212 Y185.639 E-.00956
G1 X81.49 Y185.834 E-.06803
G1 X81.799 Y185.978 E-.06803
G1 X82.127 Y186.066 E-.06803
G1 X82.468 Y186.096 E-.06832
G1 X82.82 Y186.062 E-.07078
G1 X83.048 Y186.001 E-.04725
;WIPE_END
G1 X80.313 Y193.126 Z.6 F21000
G1 X79.273 Y195.837 Z.6
G1 Z.2
G1 E2 F4800
;TYPE:Inner wall
G1 F2700
G1 X79.273 Y172.451 E.84437
G1 X143.482 Y172.451 E2.31832
G1 X144.314 Y172.419 E.03007
G1 X145.157 Y172.319 E.03064
G1 X145.989 Y172.153 E.03064
G1 X146.806 Y171.923 E.03064
G1 X147.602 Y171.629 E.03064
G1 X148.373 Y171.274 E.03064
G1 X149.113 Y170.859 E.03064
G1 X149.819 Y170.388 E.03064
G1 X150.485 Y169.862 E.03064
G1 X151.108 Y169.286 E.03064
G1 X151.684 Y168.663 E.03064
G1 X152.21 Y167.997 E.03064
G1 X152.681 Y167.291 E.03064
G1 X153.096 Y166.551 E.03064
G1 X153.451 Y165.78 E.03064
G1 X153.745 Y164.984 E.03064
G1 X153.975 Y164.167 E.03064
G1 X154.141 Y163.335 E.03064
G1 X154.24 Y162.492 E.03064
G1 X154.273 Y161.66 E.03007
G1 X154.273 Y75.577 E3.10812
G1 X158.395 Y75.567 E.14882
G1 X161.798 Y75.583 E.12287
G1 X177.659 Y75.577 E.57268
G1 X177.659 Y161.636 E3.10724
G1 X177.628 Y163.095 E.05272
G1 X177.536 Y164.544 E.05241
G1 X177.382 Y165.987 E.05241
G1 X177.167 Y167.423 E.05241
G1 X176.891 Y168.848 E.05241
G1 X176.556 Y170.26 E.05241
G1 X176.16 Y171.657 E.05241
G1 X175.706 Y173.035 E.05241
G1 X175.193 Y174.393 E.05241
G1 X174.623 Y175.728 E.05241
G1 X173.998 Y177.038 E.05241
G1 X173.317 Y178.32 E.05241
G1 X172.582 Y179.572 E.05241
G1 X171.795 Y180.791 E.05241
G1 X170.957 Y181.976 E.05241
G1 X170.069 Y183.125 E.05241
G1 X169.134 Y184.234 E.05241
G1 X168.152 Y185.303 E.05241
G1 X167.125 Y186.33 E.05241
G1 X166.056 Y187.312 E.05241
G1 X164.947 Y188.247 E.05241
G1 X163.798 Y189.135 E.05241
G1 X162.613 Y189.973 E.05241
G1 X161.394 Y190.76 E.05241
G1 X160.142 Y191.495 E.05238
G1 X158.795 Y192.207 E.05501
G1 X157.55 Y192.802 E.04983
G1 X156.215 Y193.371 E.05241
G1 X154.857 Y193.884 E.05241
G1 X153.479 Y194.338 E.05241
G1 X152.082 Y194.734 E.05241
G1 X150.67 Y195.069 E.05241
G1 X149.245 Y195.345 E.05241
G1 X147.809 Y195.56 E.05241
G1 X146.366 Y195.714 E.05241
G1 X144.917 Y195.806 E.05241
G1 X143.458 Y195.837 E.05272
G1 X79.313 Y195.837 E2.316
G1 X78.816 Y196.294 F21000
;TYPE:Outer wall
G1 F2700
G1 X78.816 Y171.994 E.87738
G1 X143.473 Y171.994 E2.3345
G1 X144.278 Y171.963 E.02909
G1 X145.085 Y171.867 E.02934
G1 X145.882 Y171.708 E.02934
G1 X146.665 Y171.488 E.02934
G1 X147.427 Y171.207 E.02934
G1 X148.165 Y170.866 E.02934
G1 X148.874 Y170.469 E.02934
G1 X149.55 Y170.018 E.02934
G1 X150.188 Y169.515 E.02934
G1 X150.785 Y168.963 E.02934
G1 X151.337 Y168.366 E.02934
G1 X151.84 Y167.728 E.02934
G1 X152.291 Y167.052 E.02934
G1 X152.688 Y166.343 E.02934
G1 X153.029 Y165.605 E.02934
G1 X153.31 Y164.843 E.02934
G1 X153.53 Y164.06 E.02934
G1 X153.689 Y163.263 E.02934
G1 X153.784 Y162.456 E.02934
G1 X153.816 Y161.651 E.02909
G1 X153.816 Y75.653 E3.10505
G1 X153.834 Y75.286 E.01327
G1 X153.859 Y75.121 E.00602
G1 X158.395 Y75.11 E.1638
G1 X161.799 Y75.126 E.12288
G1 X178.073 Y75.121 E.5876
G1 X178.098 Y75.286 E.00604
G1 X178.116 Y75.653 E.01326
G1 X178.116 Y161.64 E3.10467
M73 P10 R38
G1 X178.085 Y163.115 E.05324
M73 P10 R38
G1 X177.991 Y164.583 E.05311
G1 X177.835 Y166.045 E.05311
G1 X177.618 Y167.5 E.05311
G1 X177.338 Y168.944 E.05311
G1 X176.998 Y170.375 E.05311
G1 X176.597 Y171.79 E.05311
G1 X176.137 Y173.187 E.05311
G1 X175.617 Y174.564 E.05311
G1 X175.04 Y175.917 E.05311
G1 X174.406 Y177.244 E.05311
G1 X173.716 Y178.543 E.05311
G1 X172.972 Y179.811 E.05311
G1 X172.174 Y181.047 E.05311
G1 X171.325 Y182.248 E.05311
G1 X170.425 Y183.412 E.05311
G1 X169.477 Y184.537 E.05311
G1 X168.482 Y185.62 E.05311
G1 X167.442 Y186.66 E.05311
G1 X166.358 Y187.655 E.05311
G1 X165.234 Y188.603 E.05311
G1 X164.07 Y189.503 E.05311
G1 X162.869 Y190.352 E.05311
G1 X161.633 Y191.15 E.05311
G1 X160.365 Y191.894 E.0531
G1 X159.001 Y192.615 E.05571
G1 X157.738 Y193.218 E.05051
G1 X156.386 Y193.795 E.05311
G1 X155.009 Y194.315 E.05311
G1 X153.612 Y194.775 E.05311
G1 X152.197 Y195.176 E.05311
G1 X150.766 Y195.516 E.05311
G1 X149.322 Y195.796 E.05311
G1 X147.867 Y196.013 E.05311
G1 X146.405 Y196.169 E.05311
G1 X144.937 Y196.263 E.05311
G1 X143.462 Y196.294 E.05324
G1 X78.856 Y196.294 E2.33268
G1 E-1.6 F4800
;WIPE_START
G1 F2700
G1 X78.853 Y194.294 E-.4
;WIPE_END
G1 Z.6 F21000
G1 X79.773 Y185.301 Z.6
G1 Z.2
G1 E2 F4800
;TYPE:Gap infill
;WIDTH:0.486022
;MM3_PER_MM:0.088620
G1 F2700
G1 X79.744 Y185.084 E.00766
;WIDTH:0.468056
;MM3_PER_MM:0.085027
G1 X79.716 Y184.867 E.00735
;WIDTH:0.432124
;MM3_PER_MM:0.077841
G1 X79.687 Y184.651 E.00672
;WIDTH:0.388611
;MM3_PER_MM:0.069138
G1 X79.664 Y184.158 E.01346
G1 X79.685 Y183.67 E.01335
;WIDTH:0.429455
;MM3_PER_MM:0.077307
G1 X79.716 Y183.421 E.00766
;WIDTH:0.468057
;MM3_PER_MM:0.085027
G1 X79.744 Y183.204 E.00735
;WIDTH:0.503989
;MM3_PER_MM:0.092214
G1 X79.773 Y182.987 E.00797
G1 E-1.61117 F4800
;WIPE_START
G1 F2700
G1 X79.744 Y183.204 E-.38883
;WIPE_END
G1 X84.853 Y177.534 Z.6 F21000
G1 X176.552 Y75.76 Z.6
G1 Z.2
G1 E2 F4800
;TYPE:Bottom surface
;WIDTH:0.500349
;MM3_PER_MM:0.091486
G1 F2700
G1 X177.271 Y76.479 E.03673
G1 X177.271 Y77.126 E.02337
G1 X176.111 Y75.966 E.05926
G1 X175.464 Y75.966 E.02337
G1 X177.271 Y77.773 E.09231
G1 X177.271 Y78.419 E.02337
G1 X174.817 Y75.966 E.12535
G1 X174.171 Y75.967 E.02337
G1 X177.271 Y79.066 E.1584
G1 X177.271 Y79.713 E.02337
G1 X173.524 Y75.967 E.19144
G1 X172.877 Y75.967 E.02337
G1 X177.271 Y80.36 E.22449
G1 X177.271 Y81.007 E.02337
G1 X172.231 Y75.967 E.25753
G1 X171.584 Y75.968 E.02337
G1 X177.271 Y81.654 E.29058
G1 X177.271 Y82.301 E.02337
G1 X170.937 Y75.968 E.32362
G1 X170.291 Y75.968 E.02337
G1 X177.271 Y82.948 E.35667
G1 X177.271 Y83.595 E.02337
G1 X169.644 Y75.968 E.38971
G1 X168.997 Y75.968 E.02337
G1 X177.271 Y84.242 E.42276
G1 X177.271 Y84.888 E.02337
G1 X168.351 Y75.969 E.4558
G1 X167.704 Y75.969 E.02337
G1 X177.271 Y85.535 E.48885
G1 X177.271 Y86.182 E.02337
G1 X167.057 Y75.969 E.5219
G1 X166.411 Y75.969 E.02337
G1 X177.271 Y86.829 E.55494
G1 X177.271 Y87.476 E.02337
G1 X165.764 Y75.97 E.58799
G1 X165.117 Y75.97 E.02337
G1 X177.271 Y88.123 E.62103
G1 X177.271 Y88.77 E.02337
G1 X164.471 Y75.97 E.65408
G1 X163.824 Y75.97 E.02337
G1 X177.271 Y89.417 E.68712
G1 X177.271 Y90.064 E.02337
G1 X163.177 Y75.971 E.72017
G1 X162.531 Y75.971 E.02337
G1 X177.271 Y90.711 E.75321
G1 X177.271 Y91.357 E.02337
G1 X161.884 Y75.971 E.78626
G1 X161.235 Y75.969 E.02347
G1 X177.271 Y92.004 E.81944
G1 X177.271 Y92.651 E.02337
G1 X160.585 Y75.966 E.85265
G1 X159.935 Y75.963 E.02348
G1 X177.271 Y93.298 E.88586
G1 X177.271 Y93.945 E.02337
G1 X159.285 Y75.96 E.91907
G1 X158.635 Y75.957 E.02348
G1 X177.271 Y94.592 E.95228
G1 X177.271 Y95.239 E.02337
G1 X157.988 Y75.956 E.98535
G1 X157.343 Y75.958 E.02332
G1 X177.271 Y95.886 E1.01832
G1 X177.271 Y96.533 E.02337
G1 X156.697 Y75.96 E1.0513
G1 X156.052 Y75.961 E.02332
G1 X177.271 Y97.18 E1.08428
G1 X177.271 Y97.827 E.02337
G1 X155.407 Y75.963 E1.11726
G1 X154.761 Y75.964 E.02332
G1 X177.271 Y98.473 E1.15024
G1 X177.271 Y99.12 E.02337
G1 X154.662 Y76.512 E1.15532
G1 X154.662 Y77.158 E.02337
G1 X177.271 Y99.767 E1.15532
G1 X177.271 Y100.414 E.02337
G1 X154.662 Y77.805 E1.15532
G1 X154.662 Y78.452 E.02337
G1 X177.271 Y101.061 E1.15532
G1 X177.271 Y101.708 E.02337
G1 X154.662 Y79.099 E1.15532
G1 X154.662 Y79.746 E.02337
G1 X177.271 Y102.355 E1.15532
M73 P11 R38
G1 X177.271 Y103.002 E.02337
M73 P11 R38
G1 X154.662 Y80.393 E1.15532
G1 X154.662 Y81.04 E.02337
G1 X177.271 Y103.649 E1.15532
G1 X177.271 Y104.296 E.02337
G1 X154.662 Y81.687 E1.15532
G1 X154.662 Y82.334 E.02337
G1 X177.271 Y104.942 E1.15532
G1 X177.271 Y105.589 E.02337
G1 X154.662 Y82.981 E1.15532
G1 X154.662 Y83.627 E.02337
G1 X177.271 Y106.236 E1.15532
G1 X177.271 Y106.883 E.02337
G1 X154.662 Y84.274 E1.15532
G1 X154.662 Y84.921 E.02337
G1 X177.271 Y107.53 E1.15532
G1 X177.271 Y108.177 E.02337
G1 X154.662 Y85.568 E1.15532
G1 X154.662 Y86.215 E.02337
G1 X177.271 Y108.824 E1.15532
G1 X177.271 Y109.471 E.02337
G1 X154.662 Y86.862 E1.15532
G1 X154.662 Y87.509 E.02337
G1 X177.271 Y110.118 E1.15532
G1 X177.271 Y110.765 E.02337
G1 X154.662 Y88.156 E1.15532
G1 X154.662 Y88.803 E.02337
G1 X177.271 Y111.411 E1.15532
G1 X177.271 Y112.058 E.02337
G1 X154.662 Y89.45 E1.15532
G1 X154.662 Y90.096 E.02337
G1 X177.271 Y112.705 E1.15532
G1 X177.271 Y113.352 E.02337
G1 X154.662 Y90.743 E1.15532
G1 X154.662 Y91.39 E.02337
G1 X177.271 Y113.999 E1.15532
M73 P11 R37
G1 X177.271 Y114.646 E.02337
M73 P11 R37
G1 X154.662 Y92.037 E1.15532
G1 X154.662 Y92.684 E.02337
G1 X177.271 Y115.293 E1.15532
G1 X177.271 Y115.94 E.02337
G1 X154.662 Y93.331 E1.15532
G1 X154.662 Y93.978 E.02337
G1 X177.271 Y116.587 E1.15532
G1 X177.271 Y117.234 E.02337
G1 X154.662 Y94.625 E1.15532
G1 X154.662 Y95.272 E.02337
G1 X177.271 Y117.88 E1.15532
G1 X177.271 Y118.527 E.02337
G1 X154.662 Y95.919 E1.15532
G1 X154.662 Y96.565 E.02337
G1 X177.271 Y119.174 E1.15532
G1 X177.271 Y119.821 E.02337
G1 X154.662 Y97.212 E1.15532
G1 X154.662 Y97.859 E.02337
G1 X177.271 Y120.468 E1.15532
G1 X177.271 Y121.115 E.02337
G1 X154.662 Y98.506 E1.15532
G1 X154.662 Y99.153 E.02337
G1 X177.271 Y121.762 E1.15532
G1 X177.271 Y122.409 E.02337
G1 X154.662 Y99.8 E1.15532
G1 X154.662 Y100.447 E.02337
G1 X177.271 Y123.056 E1.15532
M73 P12 R37
G1 X177.271 Y123.703 E.02337
M73 P12 R37
G1 X154.662 Y101.094 E1.15532
G1 X154.662 Y101.741 E.02337
G1 X177.271 Y124.35 E1.15532
G1 X177.271 Y124.996 E.02337
G1 X154.662 Y102.388 E1.15532
G1 X154.662 Y103.035 E.02337
G1 X177.271 Y125.643 E1.15532
G1 X177.271 Y126.29 E.02337
G1 X154.662 Y103.681 E1.15532
G1 X154.662 Y104.328 E.02337
G1 X177.271 Y126.937 E1.15532
G1 X177.271 Y127.584 E.02337
G1 X154.662 Y104.975 E1.15532
G1 X154.662 Y105.622 E.02337
G1 X177.271 Y128.231 E1.15532
G1 X177.271 Y128.878 E.02337
G1 X154.662 Y106.269 E1.15532
G1 X154.662 Y106.916 E.02337
G1 X177.271 Y129.525 E1.15532
G1 X177.271 Y130.172 E.02337
G1 X154.662 Y107.563 E1.15532
G1 X154.662 Y108.21 E.02337
G1 X177.271 Y130.819 E1.15532
G1 X177.271 Y131.465 E.02337
G1 X154.662 Y108.857 E1.15532
G1 X154.662 Y109.504 E.02337
G1 X177.271 Y132.112 E1.15532
G1 X177.271 Y132.759 E.02337
G1 X154.662 Y110.15 E1.15532
G1 X154.662 Y110.797 E.02337
G1 X177.271 Y133.406 E1.15532
G1 X177.271 Y134.053 E.02337
G1 X154.662 Y111.444 E1.15532
G1 X154.662 Y112.091 E.02337
G1 X177.271 Y134.7 E1.15532
G1 X177.271 Y135.347 E.02337
G1 X154.662 Y112.738 E1.15532
G1 X154.662 Y113.385 E.02337
G1 X177.271 Y135.994 E1.15532
G1 X177.271 Y136.641 E.02337
G1 X154.662 Y114.032 E1.15532
G1 X154.662 Y114.679 E.02337
G1 X177.271 Y137.288 E1.15532
G1 X177.271 Y137.934 E.02337
G1 X154.662 Y115.326 E1.15532
G1 X154.662 Y115.973 E.02337
G1 X177.271 Y138.581 E1.15532
G1 X177.271 Y139.228 E.02337
G1 X154.662 Y116.619 E1.15532
G1 X154.662 Y117.266 E.02337
G1 X177.271 Y139.875 E1.15532
G1 X177.271 Y140.522 E.02337
G1 X154.662 Y117.913 E1.15532
G1 X154.662 Y118.56 E.02337
G1 X177.271 Y141.169 E1.15532
G1 X177.271 Y141.816 E.02337
G1 X154.662 Y119.207 E1.15532
G1 X154.662 Y119.854 E.02337
G1 X177.271 Y142.463 E1.15532
G1 X177.271 Y143.11 E.02337
G1 X154.662 Y120.501 E1.15532
G1 X154.662 Y121.148 E.02337
G1 X177.271 Y143.757 E1.15532
M73 P13 R37
G1 X177.271 Y144.403 E.02337
M73 P13 R37
G1 X154.662 Y121.795 E1.15532
G1 X154.662 Y122.442 E.02337
G1 X177.271 Y145.05 E1.15532
G1 X177.271 Y145.697 E.02337
G1 X154.662 Y123.088 E1.15532
G1 X154.662 Y123.735 E.02337
G1 X177.271 Y146.344 E1.15532
G1 X177.271 Y146.991 E.02337
G1 X154.662 Y124.382 E1.15532
G1 X154.662 Y125.029 E.02337
G1 X177.271 Y147.638 E1.15532
G1 X177.271 Y148.285 E.02337
G1 X154.662 Y125.676 E1.15532
G1 X154.662 Y126.323 E.02337
G1 X177.271 Y148.932 E1.15532
G1 X177.271 Y149.579 E.02337
G1 X154.662 Y126.97 E1.15532
G1 X154.662 Y127.617 E.02337
G1 X177.271 Y150.226 E1.15532
G1 X177.271 Y150.873 E.02337
G1 X154.662 Y128.264 E1.15532
G1 X154.662 Y128.911 E.02337
G1 X177.271 Y151.519 E1.15532
G1 X177.271 Y152.166 E.02337
G1 X154.662 Y129.558 E1.15532
G1 X154.662 Y130.204 E.02337
G1 X177.271 Y152.813 E1.15532
G1 X177.271 Y153.46 E.02337
G1 X154.662 Y130.851 E1.15532
G1 X154.662 Y131.498 E.02337
G1 X177.271 Y154.107 E1.15532
G1 X177.271 Y154.754 E.02337
G1 X154.662 Y132.145 E1.15532
G1 X154.662 Y132.792 E.02337
G1 X177.271 Y155.401 E1.15532
G1 X177.271 Y156.048 E.02337
G1 X154.662 Y133.439 E1.15532
G1 X154.662 Y134.086 E.02337
