; HEADER_BLOCK_START
; generated by AnycubicSlicerNext 1.3.4.0 on 2026-04-17 at 13:01:32
; total layer number: 30
; filament_density: 1.23
; filament_diameter: 1.75
; max_z_height: 6.00
; exclude_object: 1
; model_instances: 1
; HEADER_BLOCK_END

; THUMBNAIL_BLOCK_START
; THUMBNAIL_BLOCK_END

; THUMBNAIL_BLOCK_START
; THUMBNAIL_BLOCK_END

; external perimeters extrusion width = 0.42mm
; perimeters extrusion width = 0.45mm
; infill extrusion width = 0.45mm
; solid infill extrusion width = 0.42mm
; top infill extrusion width = 0.42mm
; first layer extrusion width = 0.50mm

; EXECUTABLE_BLOCK_START
EXCLUDE_OBJECT_DEFINE NAME=panel_holder.stl_id_0_copy_0 CENTER=127.5,127.5 POLYGON=[[77.5,97.5],[177.5,97.5],[177.5,157.5],[77.5,157.5],[77.5,97.5]]
;TYPE:Custom
G9111 bedTemp=70 extruderTemp=230
M117
M900 K0.051
G90
G21
M83 ; use relative distances for extrusion
; filament start gcode
M106 S0
;LAYER_CHANGE
;Z:0.2
;HEIGHT:0.2
; BEFORE_LAYER_CHANGE 0 @ 0.2mm
G1 E-2 F4800
; AFTER_LAYER_CHANGE 0 @ 0.2mm
M204 P500
SET_VELOCITY_LIMIT SQUARE_CORNER_VELOCITY=9
; printing object "panel_holder.stl" id:0 copy 0
EXCLUDE_OBJECT_START NAME=panel_holder.stl_id_0_copy_0
M204 T500
G1 X167.394 Y141.622 F21000
G1 Z.2
G1 E2 F4800
;TYPE:Inner wall
;WIDTH:0.5
;MM3_PER_MM:0.091416
G1 F2700
G1 X167.375 Y141.637 E.00089
G1 X167.037 Y141.975 E.01726
G1 X166.742 Y142.351 E.01726
G1 X166.495 Y142.76 E.01726
G1 X166.299 Y143.196 E.01726
G1 X166.156 Y143.653 E.01726
G1 X166.07 Y144.123 E.01726
G1 X166.043 Y144.574 E.01632
G1 X166.043 Y148.426 E.13907
G1 X166.07 Y148.877 E.01632
G1 X166.156 Y149.347 E.01726
G1 X166.299 Y149.804 E.01726
G1 X166.495 Y150.24 E.01726
G1 X166.742 Y150.649 E.01726
G1 X167.037 Y151.025 E.01726
G1 X167.375 Y151.363 E.01726
G1 X167.751 Y151.658 E.01726
G1 X168.16 Y151.905 E.01726
G1 X168.596 Y152.101 E.01726
G1 X169.053 Y152.244 E.01726
G1 X169.523 Y152.33 E.01726
G1 X170 Y152.359 E.01726
G1 X170.478 Y152.33 E.01729
G1 X170.954 Y152.242 E.01748
G1 X171.404 Y152.101 E.017
G1 X171.84 Y151.905 E.01726
G1 X172.249 Y151.658 E.01726
G1 X172.625 Y151.363 E.01726
G1 X172.963 Y151.025 E.01726
G1 X173.258 Y150.649 E.01726
G1 X173.505 Y150.24 E.01726
G1 X173.701 Y149.804 E.01726
G1 X173.844 Y149.347 E.01726
G1 X173.93 Y148.877 E.01726
G1 X173.957 Y148.426 E.01632
G1 X173.957 Y144.574 E.13907
G1 X173.93 Y144.123 E.01632
G1 X173.844 Y143.653 E.01726
G1 X173.701 Y143.196 E.01726
G1 X173.505 Y142.76 E.01729
G1 X173.254 Y142.346 E.01748
G1 X172.963 Y141.975 E.017
G1 X172.625 Y141.637 E.01726
G1 X172.249 Y141.342 E.01726
G1 X171.84 Y141.095 E.01726
G1 X171.404 Y140.899 E.01726
G1 X170.947 Y140.756 E.01726
G1 X170.476 Y140.67 E.01729
G1 X169.993 Y140.642 E.01748
G1 X169.523 Y140.67 E.017
G1 X169.053 Y140.756 E.01726
G1 X168.596 Y140.899 E.01726
G1 X168.16 Y141.095 E.01726
G1 X167.751 Y141.342 E.01726
G1 X167.426 Y141.597 E.01493
G1 X167.673 Y141.985 F21000
;TYPE:Outer wall
G1 F2700
G1 X167.38 Y142.279 E.01499
G1 X167.119 Y142.611 E.01526
G1 X166.9 Y142.973 E.01526
G1 X166.727 Y143.359 E.01526
G1 X166.601 Y143.762 E.01526
G1 X166.525 Y144.178 E.01526
G1 X166.5 Y144.588 E.01483
G1 X166.5 Y148.412 E.13808
G1 X166.525 Y148.822 E.01483
G1 X166.601 Y149.238 E.01526
G1 X166.727 Y149.641 E.01526
G1 X166.9 Y150.027 E.01526
G1 X167.119 Y150.389 E.01526
G1 X167.38 Y150.721 E.01526
G1 X167.679 Y151.02 E.01526
G1 X168.011 Y151.281 E.01526
G1 X168.373 Y151.5 E.01526
G1 X168.759 Y151.673 E.01526
G1 X169.162 Y151.799 E.01526
G1 X169.578 Y151.875 E.01526
G1 X170 Y151.901 E.01526
G1 X170.422 Y151.875 E.01528
G1 X170.844 Y151.797 E.01549
G1 X171.241 Y151.673 E.01502
G1 X171.627 Y151.5 E.01526
G1 X171.989 Y151.281 E.01526
G1 X172.321 Y151.02 E.01526
G1 X172.62 Y150.721 E.01526
G1 X172.881 Y150.389 E.01526
G1 X173.1 Y150.027 E.01526
G1 X173.273 Y149.641 E.01526
G1 X173.399 Y149.238 E.01526
G1 X173.475 Y148.822 E.01526
G1 X173.5 Y148.412 E.01483
G1 X173.5 Y144.588 E.13808
G1 X173.475 Y144.178 E.01483
G1 X173.399 Y143.762 E.01526
G1 X173.273 Y143.359 E.01526
G1 X173.1 Y142.973 E.01528
G1 X172.877 Y142.606 E.01549
G1 X172.62 Y142.279 E.01502
G1 X172.321 Y141.98 E.01526
G1 X171.989 Y141.719 E.01526
G1 X171.627 Y141.5 E.01526
G1 X171.241 Y141.327 E.01526
G1 X170.838 Y141.201 E.01526
G1 X170.422 Y141.125 E.01528
G1 X169.993 Y141.1 E.01549
G1 X169.578 Y141.125 E.01502
G1 X169.162 Y141.201 E.01526
G1 X168.759 Y141.327 E.01526
G1 X168.373 Y141.5 E.01526
G1 X168.011 Y141.719 E.01526
G1 X167.704 Y141.96 E.01409
G1 E-1.6 F4800
;WIPE_START
G1 F2700
G1 X167.38 Y142.279 E-.09101
G1 X167.119 Y142.611 E-.08455
G1 X166.9 Y142.973 E-.08455
G1 X166.727 Y143.359 E-.08455
G1 X166.644 Y143.623 E-.05534
;WIPE_END
G1 X167.054 Y103.957 F21000
G1 E2 F4800
;TYPE:Inner wall
G1 F2700
G1 X167.037 Y103.975 E.00089
G1 X166.742 Y104.351 E.01726
G1 X166.495 Y104.76 E.01726
G1 X166.298 Y105.197 E.01729
G1 X166.155 Y105.66 E.01748
G1 X166.07 Y106.123 E.017
G1 X166.043 Y106.574 E.01632
G1 X166.043 Y110.426 E.13907
G1 X166.07 Y110.877 E.01632
G1 X166.156 Y111.347 E.01726
G1 X166.299 Y111.804 E.01726
G1 X166.495 Y112.24 E.01726
G1 X166.742 Y112.649 E.01726
G1 X167.037 Y113.025 E.01726
G1 X167.375 Y113.363 E.01726
G1 X167.751 Y113.658 E.01726
G1 X168.16 Y113.905 E.01726
G1 X168.596 Y114.101 E.01726
G1 X169.053 Y114.244 E.01726
G1 X169.523 Y114.33 E.01726
G1 X170 Y114.359 E.01726
G1 X170.478 Y114.33 E.01729
G1 X170.954 Y114.242 E.01748
G1 X171.404 Y114.101 E.017
G1 X171.84 Y113.905 E.01726
G1 X172.249 Y113.658 E.01726
G1 X172.625 Y113.363 E.01726
G1 X172.963 Y113.025 E.01726
G1 X173.258 Y112.649 E.01726
G1 X173.505 Y112.24 E.01726
G1 X173.701 Y111.804 E.01726
G1 X173.844 Y111.347 E.01726
G1 X173.93 Y110.877 E.01726
G1 X173.957 Y110.426 E.01632
G1 X173.957 Y106.574 E.13907
G1 X173.93 Y106.123 E.01632
G1 X173.844 Y105.653 E.01726
G1 X173.701 Y105.196 E.01726
G1 X173.505 Y104.76 E.01726
G1 X173.258 Y104.351 E.01726
G1 X172.963 Y103.975 E.01726
G1 X172.625 Y103.637 E.01726
G1 X172.249 Y103.342 E.01726
G1 X171.84 Y103.095 E.01726
G1 X171.404 Y102.899 E.01726
G1 X170.947 Y102.756 E.01726
G1 X170.476 Y102.67 E.01729
G1 X169.993 Y102.642 E.01748
G1 X169.523 Y102.67 E.017
G1 X169.053 Y102.756 E.01726
G1 X168.596 Y102.899 E.01726
G1 X168.16 Y103.095 E.01726
G1 X167.751 Y103.342 E.01726
G1 X167.375 Y103.637 E.01726
G1 X167.083 Y103.929 E.01493
G1 X167.385 Y104.273 F21000
;TYPE:Outer wall
G1 F2700
G1 X167.38 Y104.279 E.00027
G1 X167.119 Y104.611 E.01526
G1 X166.9 Y104.973 E.01526
G1 X166.727 Y105.359 E.01528
G1 X166.6 Y105.769 E.01549
G1 X166.525 Y106.178 E.01502
G1 X166.5 Y106.588 E.01483
G1 X166.5 Y110.412 E.13808
G1 X166.525 Y110.822 E.01483
G1 X166.601 Y111.238 E.01526
G1 X166.727 Y111.641 E.01526
G1 X166.9 Y112.027 E.01526
G1 X167.119 Y112.389 E.01526
G1 X167.38 Y112.721 E.01526
G1 X167.679 Y113.02 E.01526
G1 X168.011 Y113.281 E.01526
G1 X168.373 Y113.5 E.01526
G1 X168.759 Y113.673 E.01526
G1 X169.162 Y113.799 E.01526
G1 X169.578 Y113.875 E.01526
G1 X170 Y113.901 E.01526
G1 X170.422 Y113.875 E.01528
G1 X170.844 Y113.797 E.01549
G1 X171.241 Y113.673 E.01502
G1 X171.627 Y113.5 E.01526
G1 X171.989 Y113.281 E.01526
G1 X172.321 Y113.02 E.01526
G1 X172.62 Y112.721 E.01526
G1 X172.881 Y112.389 E.01526
G1 X173.1 Y112.027 E.01526
G1 X173.273 Y111.641 E.01526
G1 X173.399 Y111.238 E.01526
G1 X173.475 Y110.822 E.01526
G1 X173.5 Y110.412 E.01483
G1 X173.5 Y106.588 E.13808
G1 X173.475 Y106.178 E.01483
G1 X173.399 Y105.762 E.01526
G1 X173.273 Y105.359 E.01526
G1 X173.1 Y104.973 E.01526
G1 X172.881 Y104.611 E.01526
G1 X172.62 Y104.279 E.01526
G1 X172.321 Y103.98 E.01526
G1 X171.989 Y103.719 E.01526
G1 X171.627 Y103.5 E.01526
G1 X171.241 Y103.327 E.01526
G1 X170.838 Y103.201 E.01526
G1 X170.422 Y103.125 E.01528
G1 X169.993 Y103.1 E.01549
G1 X169.578 Y103.125 E.01502
G1 X169.162 Y103.201 E.01526
G1 X168.759 Y103.327 E.01526
G1 X168.373 Y103.5 E.01526
G1 X168.011 Y103.719 E.01526
G1 X167.679 Y103.98 E.01526
G1 X167.413 Y104.245 E.01355
G1 E-1.6 F4800
;WIPE_START
G1 F2700
G1 X167.38 Y104.279 E-.00949
G1 X167.119 Y104.611 E-.08455
G1 X166.9 Y104.973 E-.08455
G1 X166.727 Y105.359 E-.08463
G1 X166.6 Y105.769 E-.08579
G1 X166.554 Y106.02 E-.051
;WIPE_END
G1 X103.33 Y107.879 F21000
G1 E2 F4800
;TYPE:Inner wall
G1 F2700
G1 X103.36 Y107.5 E.01374
G1 X103.328 Y107.092 E.01479
G1 X103.232 Y106.694 E.01479
G1 X103.075 Y106.315 E.01479
G1 X102.861 Y105.966 E.01479
G1 X102.595 Y105.655 E.01479
G1 X102.284 Y105.389 E.01479
G1 X101.935 Y105.175 E.01479
G1 X101.556 Y105.018 E.01479
G1 X101.158 Y104.922 E.01479
G1 X100.784 Y104.893 E.01357
G1 X84.216 Y104.893 E.59818
G1 X83.842 Y104.922 E.01357
G1 X83.444 Y105.018 E.01479
G1 X83.065 Y105.175 E.01479
G1 X82.716 Y105.389 E.01479
G1 X82.405 Y105.655 E.01479
G1 X82.139 Y105.966 E.01479
G1 X81.925 Y106.315 E.01479
G1 X81.767 Y106.696 E.01487
G1 X81.671 Y107.104 E.01514
G1 X81.64 Y107.5 E.01435
G1 X81.672 Y107.908 E.01479
G1 X81.768 Y108.306 E.01479
G1 X81.925 Y108.685 E.01479
G1 X82.139 Y109.034 E.01479
G1 X82.405 Y109.345 E.01479
G1 X82.716 Y109.611 E.01479
G1 X83.065 Y109.825 E.01479
G1 X83.444 Y109.982 E.01479
G1 X83.842 Y110.078 E.01479
G1 X84.216 Y110.107 E.01357
G1 X100.784 Y110.107 E.59818
G1 X101.158 Y110.078 E.01357
G1 X101.556 Y109.982 E.01479
G1 X101.935 Y109.825 E.01479
G1 X102.284 Y109.611 E.01479
G1 X102.595 Y109.345 E.01479
G1 X102.861 Y109.034 E.01479
G1 X103.075 Y108.685 E.01479
G1 X103.232 Y108.306 E.01479
G1 X103.325 Y107.919 E.01439
G1 X102.864 Y107.881 F21000
;TYPE:Outer wall
G1 F2700
G1 X102.875 Y107.837 E.00164
G1 X102.901 Y107.5 E.01219
G1 X102.875 Y107.163 E.01219
G1 X102.796 Y106.835 E.01219
G1 X102.667 Y106.523 E.01219
G1 X102.49 Y106.236 E.01219
G1 X102.271 Y105.979 E.01219
G1 X102.014 Y105.76 E.01219
G1 X101.727 Y105.583 E.01219
G1 X101.415 Y105.454 E.01219
G1 X101.087 Y105.375 E.01219
G1 X100.766 Y105.35 E.01162
G1 X84.234 Y105.35 E.59688
G1 X83.913 Y105.375 E.01162
G1 X83.585 Y105.454 E.01219
G1 X83.273 Y105.583 E.01219
G1 X82.986 Y105.76 E.01219
G1 X82.729 Y105.979 E.01219
G1 X82.51 Y106.236 E.01219
G1 X82.333 Y106.523 E.01219
G1 X82.204 Y106.836 E.01223
G1 X82.124 Y107.174 E.01254
G1 X82.099 Y107.5 E.0118
G1 X82.125 Y107.837 E.01219
G1 X82.204 Y108.165 E.01219
G1 X82.333 Y108.477 E.01219
G1 X82.51 Y108.764 E.01219
G1 X82.729 Y109.021 E.01219
G1 X82.986 Y109.24 E.01219
G1 X83.273 Y109.417 E.01219
G1 X83.585 Y109.546 E.01219
G1 X83.913 Y109.625 E.01219
G1 X84.234 Y109.65 E.01162
G1 X100.766 Y109.65 E.59688
G1 X101.087 Y109.625 E.01162
G1 X101.415 Y109.546 E.01219
G1 X101.727 Y109.417 E.01219
G1 X102.014 Y109.24 E.01219
G1 X102.271 Y109.021 E.01219
G1 X102.49 Y108.764 E.01219
G1 X102.667 Y108.477 E.01219
G1 X102.796 Y108.165 E.01219
G1 X102.855 Y107.92 E.0091
G1 E-1.6 F4800
;WIPE_START
G1 F2700
G1 X102.875 Y107.837 E-.0171
G1 X102.901 Y107.5 E-.06751
G1 X102.875 Y107.163 E-.06751
G1 X102.796 Y106.835 E-.06751
G1 X102.667 Y106.523 E-.06751
G1 X102.49 Y106.236 E-.06752
G1 X102.343 Y106.063 E-.04533
;WIPE_END
G1 X102.876 Y149.009 F21000
G1 E2 F4800
;TYPE:Inner wall
G1 F2700
G1 X103.075 Y148.685 E.01374
G1 X103.232 Y148.306 E.01479
G1 X103.328 Y147.908 E.01479
G1 X103.36 Y147.5 E.01479
G1 X103.328 Y147.092 E.01479
G1 X103.232 Y146.694 E.01479
G1 X103.075 Y146.315 E.01479
G1 X102.861 Y145.966 E.01479
G1 X102.595 Y145.655 E.01479
G1 X102.284 Y145.389 E.01479
G1 X101.935 Y145.175 E.01479
G1 X101.556 Y145.018 E.01479
G1 X101.158 Y144.922 E.01479
G1 X100.784 Y144.893 E.01357
G1 X84.216 Y144.893 E.59818
G1 X83.842 Y144.922 E.01357
G1 X83.444 Y145.018 E.01479
G1 X83.065 Y145.175 E.01479
G1 X82.716 Y145.389 E.01479
G1 X82.405 Y145.655 E.01479
G1 X82.139 Y145.966 E.01479
G1 X81.925 Y146.315 E.01479
G1 X81.767 Y146.696 E.01487
G1 X81.671 Y147.104 E.01514
G1 X81.64 Y147.5 E.01435
G1 X81.672 Y147.908 E.01479
G1 X81.768 Y148.306 E.01479
G1 X81.925 Y148.685 E.01479
G1 X82.139 Y149.034 E.01479
G1 X82.405 Y149.345 E.01479
G1 X82.716 Y149.611 E.01479
G1 X83.065 Y149.825 E.01479
G1 X83.444 Y149.982 E.01479
G1 X83.842 Y150.078 E.01479
G1 X84.216 Y150.107 E.01357
G1 X100.784 Y150.107 E.59818
G1 X101.158 Y150.078 E.01357
G1 X101.556 Y149.982 E.01479
G1 X101.935 Y149.825 E.01479
G1 X102.284 Y149.611 E.01479
G1 X102.595 Y149.345 E.01479
G1 X102.854 Y149.042 E.01439
G1 X102.465 Y148.794 F21000
;TYPE:Outer wall
G1 F2700
G1 X102.49 Y148.764 E.0014
G1 X102.667 Y148.477 E.01219
G1 X102.796 Y148.165 E.01219
G1 X102.875 Y147.837 E.01219
G1 X102.901 Y147.5 E.01219
G1 X102.875 Y147.163 E.01219
G1 X102.796 Y146.835 E.01219
G1 X102.667 Y146.523 E.01219
G1 X102.49 Y146.236 E.01219
G1 X102.271 Y145.979 E.01219
G1 X102.014 Y145.76 E.01219
G1 X101.727 Y145.583 E.01219
G1 X101.415 Y145.454 E.01219
G1 X101.087 Y145.375 E.01219
G1 X100.766 Y145.35 E.01162
G1 X84.234 Y145.35 E.59688
G1 X83.913 Y145.375 E.01162
G1 X83.585 Y145.454 E.01219
G1 X83.273 Y145.583 E.01219
G1 X82.986 Y145.76 E.01219
G1 X82.729 Y145.979 E.01219
G1 X82.51 Y146.236 E.01219
G1 X82.333 Y146.523 E.01219
G1 X82.204 Y146.836 E.01223
G1 X82.124 Y147.174 E.01254
G1 X82.099 Y147.5 E.0118
G1 X82.125 Y147.837 E.01219
G1 X82.204 Y148.165 E.01219
G1 X82.333 Y148.477 E.01219
G1 X82.51 Y148.764 E.01219
G1 X82.729 Y149.021 E.01219
G1 X82.986 Y149.24 E.01219
G1 X83.273 Y149.417 E.01219
G1 X83.585 Y149.546 E.01219
G1 X83.913 Y149.625 E.01219
G1 X84.234 Y149.65 E.01162
G1 X100.766 Y149.65 E.59688
G1 X101.087 Y149.625 E.01162
G1 X101.415 Y149.546 E.01219
G1 X101.727 Y149.417 E.01219
G1 X102.014 Y149.24 E.01219
G1 X102.271 Y149.021 E.01219
G1 X102.439 Y148.824 E.00934
G1 E-1.6 F4800
;WIPE_START
G1 F2700
G1 X102.49 Y148.764 E-.01576
G1 X102.667 Y148.477 E-.06752
G1 X102.796 Y148.165 E-.06751
G1 X102.875 Y147.837 E-.06751
G1 X102.901 Y147.5 E-.06752
G1 X102.875 Y147.163 E-.06751
G1 X102.82 Y146.937 E-.04667
;WIPE_END
G1 X162.883 Y139.525 F21000
G1 E2 F4800
;TYPE:Inner wall
G1 F2700
G1 X162.663 Y139.094 E.01746
G1 X162.375 Y138.656 E.01892
G1 X162.073 Y138.283 E.01734
G1 X161.717 Y137.927 E.01817
G1 X161.326 Y137.61 E.01817
G1 X160.904 Y137.336 E.01817
G1 X160.456 Y137.108 E.01817
G1 X159.986 Y136.927 E.01817
G1 X159.5 Y136.797 E.01817
G1 X159.003 Y136.718 E.01817
G1 X158.521 Y136.693 E.01741
G1 X111.479 Y136.693 E1.69851
G1 X110.997 Y136.718 E.01741
G1 X110.5 Y136.797 E.01817
G1 X110.012 Y136.928 E.01824
G1 X109.524 Y137.118 E.01892
G1 X109.096 Y137.336 E.01734
G1 X108.674 Y137.61 E.01817
G1 X108.283 Y137.927 E.01817
G1 X107.927 Y138.283 E.01817
G1 X107.61 Y138.674 E.01817
G1 X107.336 Y139.096 E.01817
G1 X107.108 Y139.544 E.01817
G1 X106.927 Y140.014 E.01817
G1 X106.797 Y140.5 E.01817
G1 X106.718 Y140.997 E.01817
G1 X106.693 Y141.479 E.01741
G1 X106.693 Y148.479 E.25274
G1 X106.674 Y148.834 E.01283
G1 X106.622 Y149.164 E.01206
G1 X106.536 Y149.486 E.01206
G1 X106.416 Y149.798 E.01206
G1 X106.265 Y150.095 E.01204
G1 X106.078 Y150.381 E.01231
G1 X105.872 Y150.636 E.01184
G1 X105.636 Y150.872 E.01206
G1 X105.376 Y151.082 E.01206
G1 X105.096 Y151.264 E.01206
G1 X104.798 Y151.416 E.01206
G1 X104.486 Y151.536 E.01206
G1 X104.164 Y151.622 E.01206
G1 X103.834 Y151.674 E.01206
G1 X103.479 Y151.693 E.01283
G1 X81.521 Y151.693 E.79281
G1 X81.166 Y151.674 E.01283
G1 X80.836 Y151.622 E.01206
G1 X80.514 Y151.536 E.01204
G1 X80.196 Y151.413 E.01231
G1 X79.904 Y151.264 E.01184
G1 X79.624 Y151.082 E.01206
G1 X79.364 Y150.872 E.01206
G1 X79.128 Y150.636 E.01206
G1 X78.918 Y150.376 E.01206
G1 X78.736 Y150.096 E.01206
G1 X78.584 Y149.798 E.01206
G1 X78.464 Y149.486 E.01206
G1 X78.378 Y149.164 E.01206
G1 X78.326 Y148.834 E.01206
G1 X78.307 Y148.479 E.01283
G1 X78.307 Y106.521 E1.51493
G1 X78.326 Y106.166 E.01283
G1 X78.378 Y105.836 E.01206
G1 X78.464 Y105.514 E.01206
G1 X78.584 Y105.202 E.01206
G1 X78.736 Y104.904 E.01206
G1 X78.917 Y104.624 E.01204
G1 X79.132 Y104.36 E.01231
G1 X79.364 Y104.128 E.01184
G1 X79.624 Y103.918 E.01206
G1 X79.904 Y103.736 E.01206
G1 X80.202 Y103.584 E.01206
G1 X80.514 Y103.464 E.01206
G1 X80.836 Y103.378 E.01206
G1 X81.166 Y103.326 E.01206
G1 X81.521 Y103.307 E.01283
G1 X103.479 Y103.307 E.79281
G1 X103.834 Y103.326 E.01283
G1 X104.164 Y103.378 E.01206
G1 X104.486 Y103.464 E.01206
G1 X104.798 Y103.584 E.01206
G1 X105.096 Y103.736 E.01206
